icon-themes/sifr_svg/cmd/lc_symbolshapes.svg

<svg viewBox="0 0 24 24" xmlns="http://www.w3.org/2000/svg"><g fill="#555753"><path d="m12 3a9 9 0 0 0 -9 9 9 9 0 0 0 9 9 9 9 0 0 0 9-9 9 9 0 0 0 -9-9z" opacity=".35"/><path d="m12 2a10 10 0 0 0 -10 10 10 10 0 0 0 10 10 10 10 0 0 0 10-10 10 10 0 0 0 -10-10zm0 2a8 8 0 0 1 8 8 8 8 0 0 1 -8 8 8 8 0 0 1 -8-8 8 8 0 0 1 8-8zm-3 3c-1.1 0-2 .9-2 2s.9 2 2 2 2-.9 2-2-.9-2-2-2zm6 0c-1.104569 0-2 .9-2 2s.895431 2 2 2c1.1 0 2-.9 2-2s-.9-2-2-2zm-9 6a6 6 0 0 0 6 6 6 6 0 0 0 6-6h-2a4 4 0 0 1 -4 4 4 4 0 0 1 -4-4z"/></g></svg>

<svg xmlns="http://www.w3.org/2000/svg" viewBox="0 0 24 24">
  <path
     style="opacity:0.35;fill:#555753"
     d="M 12 3 A 9 9 0 0 0 3 12 A 9 9 0 0 0 12 21 A 9 9 0 0 0 21 12 A 9 9 0 0 0 12 3 z "
     />
  <path
     style="fill:#555753"
     d="M 12 2 A 10 10 0 0 0 2 12 A 10 10 0 0 0 12 22 A 10 10 0 0 0 22 12 A 10 10 0 0 0 12 2 z M 12 4 A 8 8 0 0 1 20 12 A 8 8 0 0 1 12 20 A 8 8 0 0 1 4 12 A 8 8 0 0 1 12 4 z M 9 7 C 7.9 7 7 7.9 7 9 C 7 10.1 7.9 11 9 11 C 10.1 11 11 10.1 11 9 C 11 7.9 10.1 7 9 7 z M 15 7 C 13.895431 7 13 7.9 13 9 C 13 10.1 13.895431 11 15 11 C 16.1 11 17 10.1 17 9 C 17 7.9 16.1 7 15 7 z M 6 13 A 6 6 0 0 0 12 19 A 6 6 0 0 0 18 13 L 16 13 A 4 4 0 0 1 12 17 A 4 4 0 0 1 8 13 L 6 13 z "
     />
</svg>
